static/images/pieces/shogi/cz/1NG.svg

<svg height="31.358999mm" viewBox="0 0 27.117003 31.358999" width="27.117002mm" xmlns="http://www.w3.org/2000/svg" xmlns:xlink="http://www.w3.org/1999/xlink"><linearGradient id="a" gradientUnits="userSpaceOnUse" x1="-705.98679" x2="-705.98679" y1="8.19215" y2="-67.2094"><stop offset="0" stop-color="#ffdba6"/><stop offset="1" stop-color="#f2c478"/></linearGradient><clipPath id="b"><path d="m0 2834.646h2834.646v-2834.646h-2834.646z" transform="translate(-318.37961 -1474.0705)"/></clipPath><g stroke-miterlimit="10"><g clip-path="url(#b)" transform="matrix(-.35277776 0 0 .35277776 6.24121 25.698872)"><path d="m0 0-20.266 6.952c-.309.106-.643.106-.952 0l-20.266-6.952c-.545-.187-.946-.679-1.038-1.274l-9.381-60.689c-.151-.981.569-1.871 1.515-1.871h29.646 29.647c.945 0 1.666.89 1.514 1.871l-9.381 60.689c-.092.595-.492 1.087-1.038 1.274" fill="url(#a)"/><path d="m-50.388672-64.683594c-1.479368 0-2.580071 1.39044-2.355469 2.84961l9.38086 60.6894528c.138203.89381631.746532 1.65517134 1.603515 1.9492187l20.265625 6.9511719c.486906.1670289 1.017001.1670289 1.503907 0l20.26562463-6.9511719c.85811437-.29389631 1.46545427-1.05632204 1.60351557-1.9492187l9.3808598-60.6874998c.22622-1.460013-.876537-2.851563-2.3554691-2.851563h-29.6464839zm0 1.699219h29.646485 29.6464839c.4110655 0 .7516077.38864.6738281.890625l-9.38085938 60.6894531c-.0459385.2971021-.23877171.51950609-.47265625.5996094l-20.26562537 6.953125c-.131094.044971-.269296.044971-.40039 0l-20.265625-6.953125c-.233016-.0799523-.428813-.3034269-.47461-.5996094l-9.380859-60.6894531c-.07608-.501766.261798-.890625.673828-.890625z" fill="#4d3608"/></g><g fill="#f00"><path d="m-.63867187 0v22.677734h1.27734374v-22.677734z" transform="matrix(-.35277776 0 0 .35277776 13.55845 6.179553)"/><path d="m-22.677734-.63867187v1.27734374h22.677734v-1.27734374z" transform="matrix(-.35277776 0 0 .35277776 9.55845 10.179577)"/><path d="m-.45117188-.45117188-8.01757812 8.01757808.9023438.9023438 8.01757808-8.01757812z" transform="matrix(-.35277776 0 0 .35277776 13.55845 10.179577)"/><path d="m-7.5664062-8.46875-.9023438.9023438 8.01757812 8.01757808.90234376-.90234376z" transform="matrix(-.35277776 0 0 .35277776 10.73002 13.007999)"/></g></g><path d="m-199.24701-23.573112q-.72347.792372-1.10243 1.136881-.44786.447863-1.10243.930176h4.34082q-1.20579-.930176-2.13596-2.067057zm-.17226-1.033528.79238.310059-.13781.172254q.96463 1.067979 1.99816 1.8259.82682.551215 1.75699.895724-.31005.310059-.51676.757921-.55122-.275607-1.24023-.620117v.482313h-2.03261v1.136881h2.03261v.689019h-2.03261v1.48139h3.20394v.72347h-7.1658v-.72347h3.13504v-1.48139h-2.17041v-.689019h2.17041v-1.136881h-2.17041v-.482313q-.55122.413411-1.03353.654568-.10335-.241157-.44786-.689019 1.37804-.792371 2.13596-1.446939.82682-.72347 1.72254-1.860351z" fill="#f00" stroke-width=".352777" transform="matrix(-1 0 0 -1 -185.58501 0)"/></svg>

<?xml version="1.0" encoding="UTF-8" standalone="no"?>
<!-- Created with Inkscape (http://www.inkscape.org/) -->

<svg
   width="26mm"
   height="30mm"
   viewBox="0 0 26 30"
   version="1.1"
   id="svg1"
   xmlns:xlink="http://www.w3.org/1999/xlink"
   xmlns="http://www.w3.org/2000/svg"
   xmlns:svg="http://www.w3.org/2000/svg">
  <defs
     id="defs1">
    <linearGradient
       id="linearGradient22">
      <stop
         style="stop-color:#ffdba6;stop-opacity:1;"
         offset="0"
         id="stop21" />
      <stop
         style="stop-color:#f2c478;stop-opacity:1;"
         offset="1"
         id="stop22" />
    </linearGradient>
    <clipPath
       clipPathUnits="userSpaceOnUse"
       id="clipPath1354">
      <path
         d="M 0,2834.646 H 2834.646 V 0 H 0 Z"
         transform="translate(-318.37961,-1474.0705)"
         id="path1354" />
    </clipPath>
    <linearGradient
       xlink:href="#linearGradient22"
       id="linearGradient17"
       gradientUnits="userSpaceOnUse"
       gradientTransform="translate(-3809.7637,-212.60334)"
       x1="289.06915"
       y1="220.19536"
       x2="289.06967"
       y2="143.72234" />
  </defs>
  <g
     id="layer1"
     transform="translate(-540)">
    <g
       id="path5"
       clip-path="url(#clipPath1354)"
       transform="matrix(-0.35277776,0,0,0.35277776,545.68272,25.019329)">
      <path
         style="color:#000000;fill:url(#linearGradient17);stroke-miterlimit:10;-inkscape-stroke:none"
         d="m 0,0 -20.266,6.952 c -0.309,0.106 -0.643,0.106 -0.952,0 L -41.484,0 c -0.545,-0.187 -0.946,-0.679 -1.038,-1.274 l -9.381,-60.689 c -0.151,-0.981 0.569,-1.871 1.515,-1.871 h 29.646 29.647 c 0.945,0 1.666,0.89 1.514,1.871 L 1.038,-1.274 C 0.946,-0.679 0.546,-0.187 0,0"
         id="path115" />
      <path
         style="color:#000000;fill:#4d3608;stroke-miterlimit:10;-inkscape-stroke:none"
         d="m -50.388672,-64.683594 c -1.479368,0 -2.580071,1.39044 -2.355469,2.84961 l 9.38086,60.6894528 c 0.138203,0.89381631 0.746532,1.65517134 1.603515,1.9492187 l 20.265625,6.9511719 c 0.486906,0.1670289 1.017001,0.1670289 1.503907,0 L 0.27539063,0.8046875 C 1.133505,0.51079119 1.7408449,-0.25163454 1.8789062,-1.1445312 L 11.259766,-61.832031 c 0.22622,-1.460013 -0.876537,-2.851563 -2.3554691,-2.851563 H -20.742187 Z m 0,1.699219 h 29.646485 29.6464839 c 0.4110655,0 0.7516077,0.38864 0.6738281,0.890625 L 0.19726562,-1.4042969 c -0.0459385,0.2971021 -0.23877171,0.51950609 -0.47265625,0.5996094 L -20.541016,6.1484375 c -0.131094,0.044971 -0.269296,0.044971 -0.40039,0 l -20.265625,-6.953125 c -0.233016,-0.0799523 -0.428813,-0.3034269 -0.47461,-0.5996094 L -51.0625,-62.09375 c -0.07608,-0.501766 0.261798,-0.890625 0.673828,-0.890625 z"
         id="path116" />
    </g>
    <path
       style="color:#000000;fill:#ff0000;stroke-miterlimit:10;-inkscape-stroke:none"
       d="M -0.63867187,0 V 22.677734 H 0.63867187 V 0 Z"
       id="path6"
       transform="matrix(-0.35277776,0,0,0.35277776,552.99996,5.5000119)" />
    <path
       style="color:#000000;fill:#ff0000;stroke-miterlimit:10;-inkscape-stroke:none"
       d="M -22.677734,-0.63867187 V 0.63867187 H 0 v -1.27734374 z"
       id="path7"
       transform="matrix(-0.35277776,0,0,0.35277776,548.99996,9.5000359)" />
    <path
       style="color:#000000;fill:#ff0000;stroke-miterlimit:10;-inkscape-stroke:none"
       d="M -0.45117188,-0.45117188 -8.46875,7.5664062 -7.5664062,8.46875 0.45117188,0.45117188 Z"
       id="path8"
       transform="matrix(-0.35277776,0,0,0.35277776,552.99996,9.5000359)" />
    <path
       style="color:#000000;fill:#ff0000;stroke-miterlimit:10;-inkscape-stroke:none"
       d="M -7.5664062,-8.46875 -8.46875,-7.5664062 -0.45117188,0.45117188 0.45117188,-0.45117188 Z"
       id="path9"
       transform="matrix(-0.35277776,0,0,0.35277776,550.17153,12.328458)" />
    <path
       style="fill:#ff0000;stroke-width:0.352777"
       d="m -553.10352,-22.893569 q -0.72347,0.792371 -1.10243,1.136881 -0.44786,0.447862 -1.10243,0.930175 h 4.34082 q -1.20578,-0.930175 -2.13596,-2.067056 z m -0.17225,-1.033528 0.79237,0.310058 -0.1378,0.172255 q 0.96462,1.067979 1.99815,1.8259 0.82682,0.551215 1.757,0.895724 -0.31006,0.310058 -0.51677,0.757921 -0.55121,-0.275608 -1.24023,-0.620117 v 0.482313 h -2.03261 v 1.136881 h 2.03261 v 0.689019 h -2.03261 v 1.48139 h 3.20394 v 0.723469 h -7.16579 v -0.723469 h 3.13503 v -1.48139 h -2.17041 v -0.689019 h 2.17041 v -1.136881 h -2.17041 v -0.482313 q -0.55121,0.413411 -1.03353,0.654568 -0.10335,-0.241157 -0.44786,-0.689019 1.37804,-0.792372 2.13596,-1.44694 0.82682,-0.723469 1.72255,-1.86035 z"
       id="text9"
       transform="scale(-1)"
       aria-label="全" />
  </g>
</svg>
